dapp/src/images/warning-icon-triangle.svg

<svg fill="none" height="16" viewBox="0 0 17 16" width="17" xmlns="http://www.w3.org/2000/svg"><path d="m16.7483 13.7008-7.18155-12.40177c-.18153-.31343-.50735-.505085-.8589-.505085-.35151 0-.67739.191622-.85888.505085l-7.181475 12.40177c-.186772.3226-.192303.7249-.014418 1.0528.177883.3281.511563.5308.873273.5308h14.36305c.3617 0 .6953-.2028.8733-.5308.1778-.3279.1723-.7302-.0144-1.0528zm-8.0351-8.61693c.4125 0 .76148.24229.76148.67174 0 1.31043-.14806 3.19355-.14806 4.50399 0 .3414-.35954.4845-.61342.4845-.33835 0-.62391-.1432-.62391-.4845 0-1.31044-.14802-3.19356-.14802-4.50399 0-.42945.33837-.67174.77193-.67174zm.01064 8.11603c-.46533 0-.81435-.3964-.81435-.848 0-.4625.34899-.8478.81435-.8478.43353 0 .80371.3853.80371.8478 0 .4516-.37018.848-.80371.848z" fill="#ffc738"/></svg>

<svg width="17" height="16" viewBox="0 0 17 16" fill="none" xmlns="http://www.w3.org/2000/svg">
<path d="M16.7483 13.7008L9.56675 1.29903C9.38522 0.9856 9.0594 0.793945 8.70785 0.793945C8.35634 0.793945 8.03046 0.985567 7.84897 1.29903L0.667495 13.7008C0.480723 14.0234 0.475192 14.4257 0.653077 14.7536C0.83096 15.0817 1.16464 15.2844 1.52635 15.2844H15.8894C16.2511 15.2844 16.5847 15.0816 16.7627 14.7536C16.9405 14.4257 16.935 14.0234 16.7483 13.7008ZM8.7132 5.08387C9.1257 5.08387 9.47468 5.32616 9.47468 5.75561C9.47468 7.06604 9.32662 8.94916 9.32662 10.2596C9.32662 10.601 8.96708 10.7441 8.7132 10.7441C8.37485 10.7441 8.08929 10.6009 8.08929 10.2596C8.08929 8.94916 7.94127 7.06604 7.94127 5.75561C7.94127 5.32616 8.27964 5.08387 8.7132 5.08387ZM8.72384 13.1999C8.25851 13.1999 7.90949 12.8035 7.90949 12.3519C7.90949 11.8894 8.25848 11.5041 8.72384 11.5041C9.15737 11.5041 9.52755 11.8894 9.52755 12.3519C9.52755 12.8035 9.15737 13.1999 8.72384 13.1999Z" fill="#FFC738"/>
</svg>
